!!!COM: Corelli, Arcangelo
!!!OPR: Sonata da camera
!!!OPS: 4
!!!ONM: 6
!!!OMV: 7
!!!OTL: Giga
!!!OMD: Allegro
**kern	**fb	**kern	**kern	**kern
*part4	*part4	*part3	*part2	*part1
*staff4	*	*staff3	*staff2	*staff1
*clefF4	*	*clefF4	*clefG2	*clefG2
*k[f#c#g#]	*	*k[f#c#g#]	*k[f#c#g#]	*k[f#c#g#]
*A:	*	*A:	*A:	*A:
*M4/4	*	*M4/4	*M12/8	*M12/8
=1	=1	=1	=1	=1
4E	.	4E	4.gg#	4.bb
8r	.	8r	.	.
8E	.	8E	12r	12r
.	.	.	12r	12r
4E	.	4E	.	.
.	.	.	8gg#	8bb
.	.	.	(8gg#L	(8bbL
4EE	.	4EE	.	.
.	.	.	8ee)	8gg#)
.	.	.	8ff#J	8aaJ
.	.	.	(8gg#L	(8bbL
.	.	.	8ee)	8gg#)
.	.	.	8gg#J	8bbJ
=	=	=	=	=
4F#	#6\	4F#	.	.
8r	.	8r	.	.
8F#	.	8F#	.	.
.	.	.	4.ff#	4.aa
4F#	#6\	4F#	.	.
4FF#	.	4FF#	.	.
.	.	.	12r	12r
.	.	.	12r	12r
.	.	.	8ff#	8aa
.	.	.	(8ff#L	(8aaL
.	.	.	8dd#X)	8ff#)
.	.	.	8eeJ	8gg#J
.	.	.	(8ff#L	(8aaL
.	.	.	8dd#)	8ff#)
.	.	.	8ff#J	8aaJ
=	=	=	=	=
4.G#	6	4.G#	.	.
8G#	.	8G#	.	.
4G#	6	4G#	.	.
4A	7	4A	.	.
.	.	.	4.ee	4.gg#
.	.	.	12r	12r
.	.	.	12r	12r
.	.	.	8ee	8gg#
.	.	.	(8eeL	(8gg#L
.	.	.	8cc#)	8ee)
.	.	.	8dd#XJ	8ff#J
.	.	.	(8eeL	(8gg#L
.	.	.	8cc#)	8ee)
.	.	.	8eeJ	8gg#J
=	=	=	=	=
4B	#	4B	.	.
8r	.	8r	.	.
8B	.	8B	.	.
4c#	7	4c#	.	.
4d#X	5	4d#X	.	.
.	.	.	4.dd#X	4.ff#
.	.	.	12r	4.bb
.	.	.	12r	.
.	.	.	8dd#	.
.	.	.	(8eeL	.
.	.	.	.	8bbL
.	.	.	8dd#)	.
.	.	.	.	8aa
.	.	.	8eeJ	.
.	.	.	.	8gg#J
.	.	.	(8ff#L	.
.	.	.	.	[4.aa
.	.	.	8ee)	.
.	.	.	8ff#J	.
=	=	=	=	=
4e	5 4	4e	.	.
4G#	6	4G#	.	.
4A	6 5	4A	.	.
4B	#	4B	.	.
.	.	.	4.b	.
.	.	.	.	8aaL]
.	.	.	.	8gg#
.	.	.	.	8ff#J
.	.	.	[4.ee	.
.	.	.	.	(8gg#L
.	.	.	.	8aa)
.	.	.	.	8gg#J
.	.	.	4.ee]	.
.	.	.	.	(8ff#L
.	.	.	.	8gg#)
.	.	.	.	8aaJ
.	.	.	4.dd#X	.
.	.	.	.	4.ff#
=	=	=	=	=
4E	.	4E	.	.
2e	5 3	2e	.	.
.	4 2	.	.	.
4d#X	6	4d#X	.	.
.	.	.	4.ee	.
.	.	.	.	4.ee
.	.	.	12r	.
.	.	.	12r	12r
.	.	.	8ee	12r
.	.	.	.	8gg#
.	.	.	4.ff#	.
.	.	.	.	(8aaL
.	.	.	.	8gg#)
.	.	.	.	8aaJ
.	.	.	4.ff#	.
.	.	.	.	(8ff#L
.	.	.	.	8bb)
.	.	.	.	8ff#J
=	=	=	=	=
4e	.	4e	.	.
2B	5 #	2B	.	.
.	4 2	.	.	.
4A#X	6	4A#X	.	.
.	.	.	4.b	.
.	.	.	.	(8gg#L
.	.	.	.	8bb)
.	.	.	.	8gg#J
.	.	.	12r	.
.	.	.	12r	(8ff#L
.	.	.	8b	.
.	.	.	.	8bb)
.	.	.	4.cc#	.
.	.	.	.	8ff#J
.	.	.	.	(8eeL
.	.	.	.	8ff#)
.	.	.	4.cc#	.
.	.	.	.	8gg#J
.	.	.	.	(8ff#L
.	.	.	.	8gg#)
.	.	.	.	8eeJ
=	=	=	=	=
4B	#	4B	.	.
4D#X	6	4D#X	.	.
4G#	7	4G#	.	.
4C#	7	4C#	.	.
.	.	.	4.f#	.
.	.	.	.	(8dd#XL
.	.	.	.	8ee)
.	.	.	12r	.
.	.	.	.	8ff#J
.	.	.	12r	.
.	.	.	8ff#	(8ff#L
.	.	.	4.b	8gg#)
.	.	.	.	8ff#J
.	.	.	.	(8ff#L
.	.	.	12r	8b)
.	.	.	12r	.
.	.	.	.	8eeJ
.	.	.	8gg#	.
.	.	.	.	(8eeL
.	.	.	.	8ff#)
.	.	.	.	8eeJ
=	=	=	=	=
4F#	7 #	4F#	.	.
4BB	.	4BB	.	.
4E	6 5	4E	.	.
4F#	#	4F#	.	.
.	.	.	4.a#X	.
.	.	.	.	(8eeL
.	.	.	12r	.
.	.	.	12r	8ff#)
.	.	.	8b	.
.	.	.	.	8eeJ
.	.	.	8bL	.
.	.	.	.	(8dd#XL
.	.	.	8cc#	.
.	.	.	.	8ff#)
.	.	.	8bJ	.
.	.	.	.	8bbJ
.	.	.	4a#	.
.	.	.	.	(8gg#L
.	.	.	.	8aa#X)
.	.	.	8ff#	.
.	.	.	.	8bbJ
.	.	.	.	8cc#L
.	.	.	.	8bb
.	.	.	.	8aa#J
=	=	=	=	=
4BB	#	4BB	.	.
4G#	6	4G#	.	.
4c#	7	4c#	.	.
4F#	7	4F#	.	.
.	.	.	4.dd#X	.
.	.	.	12r	.
.	.	.	.	4.b
.	.	.	12r	.
.	.	.	12r	.
.	.	.	[4.ee	.
.	.	.	.	[4.bb
.	.	.	8eeL]	.
.	.	.	8dd#	.
.	.	.	.	8bbL]
.	.	.	8cc#J	.
.	.	.	.	8aa
.	.	.	.	8gg#J
.	.	.	.	[4.aa
=	=	=	=	=
4B	7 #	4B	.	.
4E	#7\	4E	.	.
4A	7	4A	.	.
4AA	6	4AA	.	.
.	.	.	4.dd#X	.
.	.	.	8dd#L	.
.	.	.	8cc#	.
.	.	.	.	8aaL]
.	.	.	8bJ	.
.	.	.	.	8gg#
.	.	.	4.cc#	.
.	.	.	.	8ff#J
.	.	.	.	4.gg#
.	.	.	[4.aa	.
.	.	.	.	8gg#L
.	.	.	.	8aa
.	.	.	.	8gg#J
.	.	.	.	(8ff#L
.	.	.	.	8gg#)
.	.	.	.	8eeJ
=	=	=	=	=
4BB	7 #	4BB	.	.
4C#	5	4C#	.	.
4AA	6 5	4AA	.	.
4BB	5 4	4BB	.	.
.	#	.	.	.
.	.	.	4.aa]	.
.	.	.	4.gg#	.
.	.	.	.	8dd#XL
.	.	.	.	8cc#
.	.	.	2.ff#	.
.	.	.	.	8bJ
.	.	.	.	4ee
.	.	.	.	8ee
.	.	.	.	4.ee
.	.	.	.	4ee
.	.	.	.	8dd#
=	=	=	=	=
4E	.	4E	.	.
2AA	5 3	2AA	.	.
.	#4\ 2	.	.	.
4GG#	6	4GG#	.	.
.	.	.	4.ee	.
.	.	.	12r	.
.	.	.	12r	.
.	.	.	8e	4.ee
.	.	.	4.f#	.
.	.	.	.	4.cc#
.	.	.	12r	.
.	.	.	12r	.
.	.	.	8b	.
.	.	.	.	4.d#X
.	.	.	.	[4.e
=	=	=	=	=
4AA	6 5	4AA	.	.
4BB	#	4BB	.	.
2EE	.	2EE	.	.
.	.	.	(8aL	.
.	.	.	8b)	.
.	.	.	8g#J	.
.	.	.	4f#	.
.	.	.	8b	.
.	.	.	.	4.e]
.	.	.	2.g#	.
.	.	.	.	4.d#X
.	.	.	.	2.e
=:|!|:	=:|!|:	=:|!|:	=:|!|:	=:|!|:
4B#X	6	4B#X	.	.
4G#	#	4G#	.	.
4c#	5	4c#	.	.
4C#	.	4C#	.	.
.	.	.	2.gg#	.
.	.	.	.	(8dd#XL
.	.	.	[2.gg#	.
.	.	.	.	8cc#)
.	.	.	.	8dd#J
.	.	.	.	(8gg#L
.	.	.	.	8ff#)
.	.	.	.	8gg#J
.	.	.	.	(8eeL
.	.	.	.	8dd#)
.	.	.	.	8cc#J
.	.	.	.	(8eeL
.	.	.	.	8dd#)
.	.	.	.	8cc#J
=	=	=	=	=
4BB#X	6	4BB#X	.	.
4GG#	#	4GG#	.	.
2C#	5	2C#	.	.
.	.	.	2.gg#_	.
.	.	.	.	(8dd#XL
.	.	.	2.gg#]	.
.	.	.	.	8cc#)
.	.	.	.	8dd#J
.	.	.	.	(8gg#L
.	.	.	.	8ff#)
.	.	.	.	8gg#J
.	.	.	.	2.ee
=	=	=	=	=
4A#X	6	4A#X	.	.
4F#	#	4F#	.	.
4Bni	#	4Bni	.	.
4BBni	#	4BBni	.	.
.	.	.	2.ff#	.
.	.	.	.	(8cc#L
.	.	.	[2.ff#T	.
.	.	.	.	8b)
.	.	.	.	8cc#J
.	.	.	.	(8ff#L
.	.	.	.	8ee)
.	.	.	.	8ff#J
.	.	.	.	(8dd#XL
.	.	.	.	8cc#)
.	.	.	.	8bJ
.	.	.	.	(8dd#L
.	.	.	.	8cc#)
.	.	.	.	8bJ
=	=	=	=	=
4AA#X	6	4AA#X	.	.
4FF#	#	4FF#	.	.
2BB	#	2BB	.	.
.	.	.	2.ff#_	.
.	.	.	.	(8cc#L
.	.	.	2.ff#]	.
.	.	.	.	8b)
.	.	.	.	8cc#J
.	.	.	.	(8ff#L
.	.	.	.	8ee)
.	.	.	.	8ff#J
.	.	.	.	2.dd#X
=	=	=	=	=
4D#X	6	4D#X	.	.
4E	.	4E	.	.
4F#	7 #	4F#	.	.
4BB	#	4BB	.	.
.	.	.	4.b	.
.	.	.	2.ee	.
.	.	.	.	(8ff#L
.	.	.	.	8ee)
.	.	.	.	8ff#J
.	.	.	.	(8gg#L
.	.	.	4.dd#X	.
.	.	.	.	8ff#)
.	.	.	.	8gg#J
.	.	.	.	4.a#X
.	.	.	.	[4.b
=	=	=	=	=
2FF#	5 4	2FF#	.	.
.	#	.	.	.
2BB	#	2BB	.	.
.	.	.	2.cc#	.
.	.	.	.	4.b]
.	.	.	2.b	.
.	.	.	.	4.a#X
.	.	.	.	2.b
=	=	=	=	=
4E	6	4E	.	.
4F#	.	4F#	.	.
4G#	7 #	4G#	.	.
4C#	.	4C#	.	.
.	.	.	4.cc#	.
.	.	.	2.ff#	.
.	.	.	.	(8gg#L
.	.	.	.	8ff#)
.	.	.	.	8gg#J
.	.	.	.	(8aaL
.	.	.	4.ee	.
.	.	.	.	8gg#)
.	.	.	.	8aaJ
.	.	.	.	4.b#X
.	.	.	.	[4.cc#
=	=	=	=	=
2GG#	5 4	2GG#	.	.
.	#	.	.	.
2C#	n	2C#	.	.
.	.	.	2.dd#X	.
.	.	.	.	4.cc#]
.	.	.	2.cc#	.
.	.	.	.	4.b#X
.	.	.	.	(8cc#L
.	.	.	.	8dd#X)
.	.	.	.	8eeJ
.	.	.	.	(8cc#L
.	.	.	.	8dd#)
.	.	.	.	8eeJ
=	=	=	=	=
4A#X	5	4A#X	.	.
4F#	7 #	4F#	.	.
2B	-	2B	.	.
.	.	.	4.cc#	.
.	.	.	4.a#X	.
.	.	.	.	2.ee
.	.	.	2.f#	.
.	.	.	.	(8ddL
.	.	.	.	8b)
.	.	.	.	8cc#J
.	.	.	.	(8ddL
.	.	.	.	8b)
.	.	.	.	8cc#J
=	=	=	=	=
4G#	5 n	4G#	.	.
4E	7	4E	.	.
2Ani	.	2Ani	.	.
.	.	.	4.b	.
.	.	.	4.g#	.
.	.	.	.	2.dd
.	.	.	2.e	.
.	.	.	.	(8cc#L
.	.	.	.	8a)
.	.	.	.	8bJ
.	.	.	.	(8cc#L
.	.	.	.	8a)
.	.	.	.	8bJ
=	=	=	=	=
4D#X	6	4D#X	.	.
4BB	#	4BB	.	.
2E	.	2E	.	.
.	.	.	4.ff#	.
.	.	.	4.dd#X	.
.	.	.	.	[4.b
.	.	.	2.b	.
.	.	.	.	4b]
.	.	.	.	8a
.	.	.	.	(8g#L
.	.	.	.	8a)
.	.	.	.	8bJ
.	.	.	.	(8g#L
.	.	.	.	8a)
.	.	.	.	8bJ
=	=	=	=	=
4D#X	6	4D#X	.	.
4G#	7	4G#	.	.
4C#	7	4C#	.	.
4F#	7	4F#	.	.
.	.	.	(8bL	.
.	.	.	8cc#)	.
.	.	.	8dd#XJ	.
.	.	.	(8bL	.
.	.	.	8cc#)	.
.	.	.	8dd#J	.
.	.	.	.	4.f#
.	.	.	(8eL	.
.	.	.	8f#)	.
.	.	.	8g#J	.
.	.	.	.	2.b
.	.	.	(8aL	.
.	.	.	8b)	.
.	.	.	8cc#J	.
.	.	.	.	[4.a
=	=	=	=	=
4BB	7 #	4BB	.	.
4E	.	4E	.	.
4AA	6 5	4AA	.	.
4BB	#	4BB	.	.
.	.	.	4.d#X	.
.	.	.	2.e	.
.	.	.	.	4.a]
.	.	.	.	4.g#
.	.	.	4.d#	.
.	.	.	.	[4.f#
.	.	.	.	4f#]
.	.	.	.	8b
=	=	=	=	=
2E	.	2E	.	.
4D#X	6	4D#X	.	.
4G#	7	4G#	.	.
.	.	.	2.e	.
.	.	.	.	(8g#L
.	.	.	(8bL	.
.	.	.	.	8a)
.	.	.	8cc#)	.
.	.	.	.	8bJ
.	.	.	8dd#XJ	.
.	.	.	.	(8g#L
.	.	.	(8bL	.
.	.	.	.	8a)
.	.	.	8cc#)	.
.	.	.	.	8bJ
.	.	.	8dd#J	.
.	.	.	.	4.f#
.	.	.	.	[4.b
=	=	=	=	=
4C#	7	4C#	.	.
4F#	7	4F#	.	.
4BB	7 #	4BB	.	.
4E	.	4E	.	.
.	.	.	(8eL	.
.	.	.	8f#)	.
.	.	.	8g#J	.
.	.	.	(8aL	.
.	.	.	8b)	.
.	.	.	8cc#J	.
.	.	.	.	4.b]
.	.	.	4.d#X	.
.	.	.	.	2.a
.	.	.	[4.e	.
.	.	.	.	4.g#
=	=	=	=	=
4AA	6 5	4AA	.	.
4BB	#	4BB	.	.
2EE	.	2EE	.	.
.	.	.	4.e]	.
.	.	.	4.d#X	.
.	.	.	.	[4.f#
.	.	.	2.e	.
.	.	.	.	4f#]
.	.	.	.	8b
.	.	.	.	2.g#
=:|!	=:|!	=:|!	=:|!	=:|!
*-	*-	*-	*-	*-
!!!system-decoration: [{s1,s2},s3,s4]
!!!YEM: CC BY-NC-SA 4.0; CCARH; DCML
!!!RDF**kern: i = editorial accidental